images/icon/guide.svg

<svg height="140" viewBox="0 0 140 140" width="140" xmlns="http://www.w3.org/2000/svg"><path d="m20.15 4.04a.5.5 0 0 1 -.4-.489v-1.551a2 2 0 0 0 -2-2h-12.5a3 3 0 0 0 -3 3v18a3 3 0 0 0 3 3h14.5a2 2 0 0 0 2-2v-16a2 2 0 0 0 -1.6-1.96zm-2.9 9.253a.25.25 0 0 1 -.426.177l-1.9-1.9a.252.252 0 0 0 -.354 0l-1.9 1.9a.25.25 0 0 1 -.426-.177v-7.543a.25.25 0 0 1 .25-.25h4.506a.25.25 0 0 1 .25.25zm.5-9.543a.25.25 0 0 1 -.25.25h-12.25a1 1 0 0 1 0-2h12.25a.25.25 0 0 1 .25.25z" transform="scale(5.83333333)"/></svg>

<svg viewBox="0 0 140 140" height="140" width="140" xmlns="http://www.w3.org/2000/svg"><g transform="matrix(5.833333333333333,0,0,5.833333333333333,0,0)"><path d="M20.15,4.04a.5.5,0,0,1-.4-.489V2a2,2,0,0,0-2-2H5.25a3,3,0,0,0-3,3V21a3,3,0,0,0,3,3h14.5a2,2,0,0,0,2-2V6A2,2,0,0,0,20.15,4.04Zm-2.9,9.253a.25.25,0,0,1-.426.177l-1.9-1.9a.252.252,0,0,0-.354,0l-1.9,1.9a.25.25,0,0,1-.426-.177V5.75a.25.25,0,0,1,.25-.25H17a.25.25,0,0,1,.25.25Zm.5-9.543A.25.25,0,0,1,17.5,4H5.25a1,1,0,0,1,0-2H17.5a.25.25,0,0,1,.25.25Z" fill="#000" stroke="none" stroke-linecap="round" stroke-linejoin="round" stroke-width="0"></path></g></svg>
